dist/img/partners/partner_8.svg

<svg width="187" height="70" viewBox="0 0 187 70" fill="none" xmlns="http://www.w3.org/2000/svg">
<g clip-path="url(#clip0_306_3422)">
<path fill-rule="evenodd" clip-rule="evenodd" d="M145.497 46.109C150.317 46.109 154.237 42.2736 154.237 37.5594C154.237 32.8449 150.317 29.0096 145.497 29.0096C140.679 29.0096 136.758 32.8449 136.758 37.5594C136.758 42.2736 140.679 46.109 145.497 46.109ZM154.237 16.3118H154.474H158.378V50.1883H154.237V46.8058C151.847 48.9725 148.766 50.1594 145.497 50.1594C138.396 50.1594 132.618 44.5069 132.618 37.5594C132.618 30.6113 138.396 24.9591 145.497 24.9591C148.766 24.9591 151.847 26.1458 154.237 28.3126V16.3118ZM59.6302 45.9597C64.4492 45.9597 68.3698 42.1244 68.3698 37.41C68.3698 32.6958 64.4492 28.8605 59.6302 28.8605C54.811 28.8605 50.8904 32.6958 50.8904 37.41C50.8904 42.1244 54.811 45.9597 59.6302 45.9597ZM50.8904 28.1638C53.28 25.997 56.3619 24.8101 59.6302 24.8101C66.7322 24.8101 72.5102 30.4625 72.5102 37.41C72.5102 44.3577 66.7322 50.0101 59.6302 50.0101C56.3619 50.0101 53.28 48.8235 50.8904 46.6564V58.6574H46.75V24.7809H50.8904V28.1638ZM80.4103 35.4428C81.3421 31.614 84.8143 28.8648 88.7748 28.8648C92.6836 28.8648 95.9578 31.5553 96.8305 35.4428H80.4103ZM88.7748 24.7809C81.7792 24.7809 76.0881 30.48 76.0881 37.4846C76.0881 44.4894 81.7792 50.1883 88.7748 50.1883C92.6923 50.1883 96.2877 48.7197 98.6408 46.1591L99.8632 44.828L100.021 44.6563L99.8493 44.4979L97.1915 42.0499L97.0201 41.8917L96.8617 42.0635L95.6392 43.3947C94.08 45.0914 91.514 46.1046 88.7748 46.1046C84.8143 46.1046 81.3423 43.3554 80.4103 39.5264H101.132V37.4846C101.132 30.361 95.7042 24.7809 88.7748 24.7809ZM182.859 37.4847C182.859 42.2377 178.939 46.1045 174.119 46.1045C169.301 46.1045 165.38 42.2377 165.38 37.4847C165.38 32.7315 169.301 28.8647 174.119 28.8647C178.939 28.8647 182.859 32.7315 182.859 37.4847ZM174.119 24.7809C167.018 24.7809 161.24 30.4798 161.24 37.4847C161.24 44.4894 167.018 50.1883 174.119 50.1883C181.222 50.1883 187 44.4894 187 37.4847C187 30.4798 181.222 24.7809 174.119 24.7809ZM116.517 24.7809C113.64 24.7809 110.899 25.8745 108.741 27.872V24.7809H104.71V50.1883H108.741V37.2225C108.741 32.5966 112.229 28.833 116.517 28.833C120.805 28.833 124.294 32.5966 124.294 37.2225V50.1883H128.324V37.2225C128.324 30.3622 123.027 24.7809 116.517 24.7809Z" fill="#1A2022"/>
<path fill-rule="evenodd" clip-rule="evenodd" d="M0 40.5092H19.4791V59.5216L38.9583 40.5092V21.4969H19.4791L0 40.5092Z" fill="#FF4876"/>
</g>
<defs>
<clipPath id="clip0_306_3422">
<rect width="187" height="70" fill="white"/>
</clipPath>
</defs>
</svg>

<svg width="187" height="70" viewBox="0 0 187 70" fill="none" xmlns="http://www.w3.org/2000/svg"><g clip-path="url(#clip0_306_3422)" fill-rule="evenodd" clip-rule="evenodd"><path d="M145.497 46.109c4.82 0 8.74-3.835 8.74-8.55 0-4.714-3.92-8.55-8.74-8.55-4.818 0-8.739 3.836-8.739 8.55 0 4.715 3.921 8.55 8.739 8.55zm8.74-29.797h4.141v33.876h-4.141v-3.382c-2.39 2.166-5.471 3.353-8.74 3.353-7.101 0-12.879-5.652-12.879-12.6 0-6.948 5.778-12.6 12.879-12.6 3.269 0 6.35 1.187 8.74 3.354V16.312zM59.63 45.96c4.82 0 8.74-3.836 8.74-8.55s-3.92-8.55-8.74-8.55c-4.819 0-8.74 3.836-8.74 8.55s3.921 8.55 8.74 8.55zm-8.74-17.796c2.39-2.167 5.472-3.354 8.74-3.354 7.102 0 12.88 5.652 12.88 12.6 0 6.948-5.778 12.6-12.88 12.6-3.268 0-6.35-1.186-8.74-3.354v12.001h-4.14V24.781h4.14v3.383zm29.52 7.279c.932-3.829 4.404-6.578 8.365-6.578 3.909 0 7.183 2.69 8.055 6.578H80.41zm8.365-10.662c-6.996 0-12.687 5.699-12.687 12.704 0 7.004 5.691 12.703 12.687 12.703 3.917 0 7.513-1.468 9.866-4.029l1.222-1.331.158-.172-.172-.158-2.657-2.448-.172-.158-.158.171-1.223 1.332c-1.559 1.696-4.125 2.71-6.864 2.71-3.96 0-7.433-2.75-8.365-6.579h20.722v-2.041c0-7.124-5.428-12.704-12.357-12.704zm94.084 12.704c0 4.753-3.92 8.62-8.74 8.62-4.818 0-8.739-3.867-8.739-8.62 0-4.754 3.921-8.62 8.739-8.62 4.82 0 8.74 3.866 8.74 8.62zm-8.74-12.704c-7.101 0-12.879 5.699-12.879 12.704 0 7.004 5.778 12.703 12.879 12.703 7.103 0 12.881-5.699 12.881-12.703 0-7.005-5.778-12.704-12.881-12.704zm-57.602 0c-2.877 0-5.618 1.094-7.776 3.091v-3.091h-4.031v25.407h4.031V37.222c0-4.625 3.488-8.389 7.776-8.389s7.777 3.764 7.777 8.39v12.965h4.03V37.222c0-6.86-5.297-12.441-11.807-12.441z" fill="#1A2022"/><path d="M0 40.51h19.48v19.012l19.478-19.013V21.497H19.48L0 40.509z" fill="#FF4876"/></g><defs><clipPath id="clip0_306_3422"><path fill="#fff" d="M0 0h187v70H0z"/></clipPath></defs></svg>
